X:1
T:Title
%%score 1 ( 2 3 )
L:1/8
Q:1/4=83
M:2/4
K:F
V:1 treble nm="Grand Piano, Soprano"
V:2 bass nm="Choir Pad, Bass"
V:3 bass 
V:1
 CF- F/E/F | GA Bc | z [EG]- [EG]/[FA]/[GB] | [Ac][Gd] [F=B][Ec] | CF- F/E/F | GA Bc | %6
w: By~Edgar~Burkart * * * *||||||
 z [EG]- [EG]/[FA]/[GB]- | [GB]/[CG]/ [CF]2 [CF] | z [Ff]- [Ff]/[Ff]/[Ff] | [Dd][Ff] [Ff][Cc]- | %10
w: ||||
 [Cc][CF]- [CF]/[CG]/[FA] | [GB][Ac] [Bd][Ac]- | [Ac]c BA | GA Bc- | c[EG]- [EG]/[FA]/[GB]- | %15
w: |||||
 [GB]/[CG]/ [CF]2 [CF]- | [CF]4- | [CF]2 z2 |] %18
w: |||
V:2
 C,F,- F,/E,/F, | G,A, B,[K:treble]C | z C- C/C/C | C[K:bass]=B, D[C,C] | C,F,- F,/E,/F, | %5
 G,A, B,C | z [C,C]- [C,C]/[C,C]/[C,C]- | [C,C]/[C,C]/ [F,A,]2 [F,A,] | %8
 z [F,F]- [F,F]/[F,F]/[F,F] | [D,D][F,F] [F,F][C,C]- | [C,C][F,A,]- [F,A,]/[F,B,]/[F,C] | %11
 [F,C][F,C] [F,F][F,F]- | [F,F]C B,A, | G,A, B,C- | C[C,C]- [C,C]/[C,C]/[C,C]- | %15
 [C,C]/[C,B,]/ [F,A,]2 [F,A,]- | [F,A,]4- | [F,A,]2 z2 |] %18
V:3
 x4 | x3[K:treble] x | x4 | z[K:bass] .G,3 | x4 | x4 | x4 | x4 | x4 | x4 | x4 | x4 | x4 | x4 | x4 | %15
 x4 | x4 | x4 |] %18

